src/topics/icons/wercker.svg

<svg height="342" preserveAspectRatio="xMidYMid" viewBox="0 0 256 342" width="256" xmlns="http://www.w3.org/2000/svg"><g><path d="m0 74.7333333v101.3333337h23.7047071v-87.466667l104.2895459-61.8666667 104.305966 61.8666667v110.933333c0 17.066667-6.166886 30.933334-16.833552 45.866667-25.787962 35.2-72.533334 60.8-87.466667 68.266667-14.696196-7.466667-57.6-30.933334-85.3333333-64h137.4723593c9.960016-9.6 12.927641-12.8 21.460974-24.533334h-198.30462373c19.26982353 68.266667 124.70462373 116.266667 124.70462373 116.266667-.027092 0 105.6-46.933333 124.8-116.266667 2.009593-7.466666 3.2-17.066666 3.2-25.6v-124.7999997l-128.005747-74.66666663z"/><path d="m66.0841989 108.866667h121.9451941v20.266666h-121.9451941z"/><path d="m55.8919546 145.133333h142.2677634v20.266667h-142.2677634z"/><path d="m53.3333333 180.333333h142.2677637v20.266667h-142.2677637z"/><path d="m99.0806737 73.6666667h55.8919543v20.2666666h-55.8919543z"/></g></svg>

<?xml version="1.0" encoding="UTF-8" standalone="no" ?>
<svg width="256px" height="342px" viewBox="0 0 256 342" version="1.1" xmlns="http://www.w3.org/2000/svg" xmlns:xlink="http://www.w3.org/1999/xlink" preserveAspectRatio="xMidYMid">
    <g fill="#000000">
        <g>
            <path d="M0,74.7333333 L0,176.066667 L23.7047071,176.066667 L23.7047071,88.6 L127.994253,26.7333333 L232.300219,88.6 L232.300219,199.533333 C232.300219,216.6 226.133333,230.466667 215.466667,245.4 C189.678705,280.6 142.933333,306.2 128,313.666667 C113.303804,306.2 70.4,282.733333 42.6666667,249.666667 L180.139026,249.666667 C190.099042,240.066667 193.066667,236.866667 201.6,225.133333 L3.29537627,225.133333 C22.5651998,293.4 128,341.4 128,341.4 C127.972908,341.4 233.6,294.466667 252.8,225.133333 C254.809593,217.666667 256,208.066667 256,199.533333 L256,74.7333333 L127.994253,0.06666667 L0,74.7333333 L0,74.7333333 Z"></path>
            <path d="M66.0841989,108.866667 L188.029393,108.866667 L188.029393,129.133333 L66.0841989,129.133333 L66.0841989,108.866667 L66.0841989,108.866667 Z"></path>
            <path d="M55.8919546,145.133333 L198.159718,145.133333 L198.159718,165.4 L55.8919546,165.4 L55.8919546,145.133333 L55.8919546,145.133333 Z"></path>
            <path d="M53.3333333,180.333333 L195.601097,180.333333 L195.601097,200.6 L53.3333333,200.6 L53.3333333,180.333333 L53.3333333,180.333333 Z"></path>
            <path d="M99.0806737,73.6666667 L154.972628,73.6666667 L154.972628,93.9333333 L99.0806737,93.9333333 L99.0806737,73.6666667 L99.0806737,73.6666667 Z"></path>
        </g>
    </g>
</svg>
